polaris-icons/icons/new-icons/ShareIosMinor.svg

<svg width="20" height="20" viewBox="0 0 20 20" fill="none" xmlns="http://www.w3.org/2000/svg">
<path d="M10.75 12.75C10.75 13.1642 10.4142 13.5 10 13.5C9.58579 13.5 9.25 13.1642 9.25 12.75L9.25 6.06066L8.03033 7.28033C7.73744 7.57322 7.26256 7.57322 6.96967 7.28033C6.67678 6.98744 6.67678 6.51256 6.96967 6.21967L9.46967 3.71967C9.76256 3.42678 10.2374 3.42678 10.5303 3.71967L13.0303 6.21967C13.3232 6.51256 13.3232 6.98744 13.0303 7.28033C12.7374 7.57322 12.2626 7.57322 11.9697 7.28033L10.75 6.06066V12.75Z" fill="#4A4A4A"/>
<path d="M16.5 10.25C16.5 9.00736 15.4926 8 14.25 8H14.18C13.7658 8 13.43 8.33579 13.43 8.75C13.43 9.16421 13.7658 9.5 14.18 9.5H14.25C14.6642 9.5 15 9.83579 15 10.25V14.25C15 14.6642 14.6642 15 14.25 15H5.75C5.33579 15 5 14.6642 5 14.25L5 10.25C5 9.83579 5.33579 9.5 5.75 9.5H5.82C6.23421 9.5 6.57 9.16421 6.57 8.75C6.57 8.33579 6.23421 8 5.82 8H5.75C4.50736 8 3.5 9.00736 3.5 10.25V14.25C3.5 15.4926 4.50736 16.5 5.75 16.5H14.25C15.4926 16.5 16.5 15.4926 16.5 14.25V10.25Z" fill="#4A4A4A"/>
</svg>

<svg viewBox="0 0 20 20" xmlns="http://www.w3.org/2000/svg"><path d="M10.75 12.75a.75.75 0 0 1-1.5 0v-6.69l-1.22 1.22a.75.75 0 0 1-1.06-1.06l2.5-2.5a.75.75 0 0 1 1.06 0l2.5 2.5a.75.75 0 0 1-1.06 1.06l-1.22-1.22v6.69Z" fill="#5C5F62"/><path d="M16.5 10.25a2.25 2.25 0 0 0-2.25-2.25h-.07a.75.75 0 0 0 0 1.5h.07a.75.75 0 0 1 .75.75v4a.75.75 0 0 1-.75.75h-8.5a.75.75 0 0 1-.75-.75v-4a.75.75 0 0 1 .75-.75h.07a.75.75 0 0 0 0-1.5h-.07a2.25 2.25 0 0 0-2.25 2.25v4a2.25 2.25 0 0 0 2.25 2.25h8.5a2.25 2.25 0 0 0 2.25-2.25v-4Z" fill="#5C5F62"/></svg>
